icons/category/icon_category-entertainment_xl_black.svg

<svg width="36" height="36" viewBox="0 0 36 36" xmlns="http://www.w3.org/2000/svg"><g fill="none" fill-rule="evenodd"><path d="M0 0h36v36H0z"/><path d="M26.093 7c-.324 0-.645.017-.955.049 0 0-.068.007-.189.029C23.328 3.307 19.931 1 15.5 1 9.22 1 5 5.621 5 12.5c0 5.799 4.696 13.095 10.078 13.465-.156 4.722-2.654 4.852-5.799 4.998-2.53.117-5.398.249-6.705 3.343l.922.389c1.061-2.513 3.377-2.619 5.829-2.732 3.09-.144 6.572-.321 6.751-6.01 1.836-.171 3.587-1.13 5.092-2.569 1.349 1.449 2.928 2.378 4.366 2.574-.213.99-.916 1.434-1.783 1.976-1.185.74-2.658 1.66-2.658 4.317h1c0-2.103 1.014-2.736 2.188-3.469.954-.596 2.014-1.277 2.26-2.817 3.508-.365 7.552-4.92 7.552-10.214 0-5.234-3.215-8.751-8-8.751zM15.5 25C11.763 25 6 19.633 6 12.5 6 6.121 9.729 2 15.5 2S25 6.121 25 12.5c0 7.133-5.763 12.5-9.5 12.5zm10.593 0c-1.292 0-2.892-.89-4.232-2.338C24.336 19.921 26 15.947 26 12.5c0-1.625-.243-3.118-.685-4.46a8.32 8.32 0 0 1 .778-.04c4.252 0 7 3.042 7 7.75 0 5.278-4.246 9.25-7 9.25z" fill="#0B1F35"/><path d="M15.993 6.905c.216.099.554.222.917.397.748.332 1.528.858 2.09 1.499.117.186.288.327.393.528.115.189.242.374.342.582.21.399.405.819.55 1.21.163.383.284.733.382.982.1.248.175.396.175.396l.046.09a.794.794 0 0 0 1.454-.09s.061-.166.135-.467c.076-.3.179-.735.172-1.281.019-.273.01-.569-.047-.889a4.067 4.067 0 0 0-.22-1.003 4.19 4.19 0 0 0-.448-1.048 5.075 5.075 0 0 0-.699-.989 6.41 6.41 0 0 0-.914-.811c-.326-.235-.682-.406-1.018-.56a5.548 5.548 0 0 0-1.911-.427 5.573 5.573 0 0 0-1.337.098c-.298.07-.446.129-.446.129l-.055.022a.793.793 0 0 0 .02 1.478c.002-.001.153.055.419.154z" fill="#0B1F35" opacity=".3"/></g></svg>

<?xml version="1.0" encoding="UTF-8"?>
<svg width="36px" height="36px" viewBox="0 0 36 36" version="1.1" xmlns="http://www.w3.org/2000/svg" xmlns:xlink="http://www.w3.org/1999/xlink">
    <!-- Generator: Sketch 48.2 (47327) - http://www.bohemiancoding.com/sketch -->
    <title>icon_category-holiday_xl_black</title>
    <desc>Created with Sketch.</desc>
    <defs></defs>
    <g id="mobile" stroke="none" stroke-width="1" fill="none" fill-rule="evenodd" transform="translate(-1768.000000, -462.000000)">
        <g id="Headings" transform="translate(64.000000, 77.000000)">
            <g id="icon_category_holiday__xl__white" transform="translate(1704.000000, 385.000000)">
                <g id="ungroup">
                    <rect id="Rectangle-path" x="0" y="0" width="36" height="36"></rect>
                    <g id="a1" opacity="0.4"></g>
                    <path d="M26.093,7 C25.769,7 25.448,7.017 25.138,7.049 C25.138,7.049 25.07,7.056 24.949,7.078 C23.328,3.307 19.931,1 15.5,1 C9.22,1 5,5.621 5,12.5 C5,18.299 9.696,25.595 15.078,25.965 C14.922,30.687 12.424,30.817 9.279,30.963 C6.749,31.08 3.881,31.212 2.574,34.306 L3.496,34.695 C4.557,32.182 6.873,32.076 9.325,31.963 C12.415,31.819 15.897,31.642 16.076,25.953 C17.912,25.782 19.663,24.823 21.168,23.384 C22.517,24.833 24.096,25.762 25.534,25.958 C25.321,26.948 24.618,27.392 23.751,27.934 C22.566,28.674 21.093,29.594 21.093,32.251 L22.093,32.251 C22.093,30.148 23.107,29.515 24.281,28.782 C25.235,28.186 26.295,27.505 26.541,25.965 C30.049,25.6 34.093,21.045 34.093,15.751 C34.093,10.517 30.878,7 26.093,7 L26.093,7 Z M15.5,25 C11.763,25 6,19.633 6,12.5 C6,6.121 9.729,2 15.5,2 C21.271,2 25,6.121 25,12.5 C25,19.633 19.237,25 15.5,25 L15.5,25 Z M26.093,25 C24.801,25 23.201,24.11 21.861,22.662 C24.336,19.921 26,15.947 26,12.5 C26,10.875 25.757,9.382 25.315,8.04 C25.571,8.016 25.83,8 26.093,8 C30.345,8 33.093,11.042 33.093,15.75 C33.093,21.028 28.847,25 26.093,25 L26.093,25 Z" id="Shape" fill="#0B1F35"></path>
                    <path d="M15.993,6.905 C16.209,7.004 16.547,7.127 16.91,7.302 C17.658,7.634 18.438,8.16 19,8.801 C19.117,8.987 19.288,9.128 19.393,9.329 C19.508,9.518 19.635,9.703 19.735,9.911 C19.945,10.31 20.14,10.73 20.285,11.121 C20.448,11.504 20.569,11.854 20.667,12.103 C20.767,12.351 20.842,12.499 20.842,12.499 L20.888,12.589 C20.976,12.761 21.127,12.902 21.324,12.974 C21.736,13.124 22.192,12.911 22.342,12.499 C22.342,12.499 22.403,12.333 22.477,12.032 C22.553,11.732 22.656,11.297 22.649,10.751 C22.668,10.478 22.659,10.182 22.602,9.862 C22.568,9.541 22.51,9.204 22.382,8.859 C22.29,8.507 22.135,8.154 21.934,7.811 C21.753,7.464 21.504,7.126 21.235,6.822 C20.948,6.526 20.652,6.242 20.321,6.011 C19.995,5.776 19.639,5.605 19.303,5.451 C18.616,5.155 17.948,5.054 17.392,5.024 C16.835,4.991 16.386,5.065 16.055,5.122 C15.757,5.192 15.609,5.251 15.609,5.251 L15.554,5.273 C15.355,5.353 15.189,5.514 15.108,5.731 C14.955,6.141 15.164,6.598 15.574,6.751 C15.576,6.75 15.727,6.806 15.993,6.905 L15.993,6.905 Z" id="Shape" fill="#0B1F35" opacity="0.3"></path>
                </g>
            </g>
        </g>
    </g>
</svg>
